X:1
T:Mrs Moray of Abercairny
T:Mrs Moray of Abercairny
T:Nathaniel Gow
C:Nathaniel Gow
L:1/8
Q:1/8=128
M:4/4
K:D
V:1 treble 
V:1
|: D/D/D F2 A<D F<D | E<=c G<c E<=C E2 | D/D/D F2 A<D F<D | D<d F<d F<D F2 | D/D/D F2 A<D F<D | %5
 E<=c G<c E<=C E2 | D/D/D F2 A<D F<D | D<d F<d F<D F2 | d/d/d f>d a>d f>d | =c/c/c e>c g>c e>c | %10
 d/d/d f>d a>d f>d | A<d F<d F<D F2 | d/d/d f>d a>d f>d | =c/c/c e>c g>c e>c | d>f e>g f<a e<g | %15
 f>d e>c d<A F2 :| %16

